!!!!SEGMENT: pl-wtm--r-1031_kurpinski-karol-kazimierz--la-fete-a-flore.krn
!!!cenid: 18xx:2165
!!!COM: Kurpiński, Karol Kazimierz
!!!COM-rismID: pe30018952
!!!CDT: 1785/03/06-1857/09/18
!!!CNT: Polish
!!!OTL: La Fete a Flore
!!!PDT: 1820
!!!AGN: Secular
!!!SMS-siglum: PL-Wtm
!!!SMS-shelfmark: R 1031
!!!SMS-shelfwork: W
!!!SMS-variant:
!!!SMS-altvar:
!!!NIFC-rismSourceID: 1001084621
!!!NIFC-islandoraID:
!!!URL-pdf-islandora:
!!!URL-scan:
!!!ONB-nifc:
!!!OMD: Nr: Maestoso
!!!AIN: 2 empty 1 fagot 1 flt 1 viola 1 violn
!!!key:
**kern	**kern	**kern	**kern	**kern	**kern
*part6	*part5	*part4	*part3	*part2	*part1
*staff6	*staff5	*staff4	*staff3	*staff2	*staff1
*Iempty	*Ifagot	*Iflt	*Iviola	*Iempty	*Ivioln
*I"Baſsi	*I"Fagotti	*I"Flauto	*I"Viole	*I"2	*I"V:1
*clefF4	*clefC4	*clefG2	*clefC3	*clefG2	*clefG2
*Trd0c0	*	*	*	*	*
*k[f#c#]	*k[f#c#]	*k[f#c#]	*k[f#c#]	*k[f#c#]	*k[f#c#]
*g:	*g:	*g:	*g:	*g:	*g:
*M4/4	*M4/4	*M4/4	*M4/4	*M4/4	*M4/4
*met(c)	*met(c)	*met(c)	*met(c)	*met(c)	*met(c)
*>[A,B,B,C]	*>[A,B,B,C]	*>[A,B,B,C]	*>[A,B,B,C]	*>[A,B,B,C]	*>[A,B,B,C]
=1	=1	=1	=1	=1	=1
*>A	*>A	*>A	*>A	*>A	*>A
4D\	[1f# [>1d	[1ddd	8d\	8f# 8A/	8ddd\
.	.	.	4d\	4f# 4A/	4ddd\
4D\	.	.	.	.	.
.	.	.	4d\	4f# 4A/	4ddd\
4F#\	.	.	.	.	.
.	.	.	4d\	4f# 4A/	4ddd\
4A\	.	.	.	.	.
.	.	.	[8d\	8f# 8A/	8ddd\
=2	=2	=2	=2	=2	=2
*	*	*	*rep	*rep	*
8d\L	4f#] 4d\]	4ddd\]	8d\]	8f# 8A/	4ddd\
8d\	.	.	4d\	4f# 4A/	.
8c#\	4r	4r	.	.	4d/
8d\J	.	.	4d\	4f# 4A/	.
8A\L	2r	2r	.	.	4f#/
8d\	.	.	4d\	4f# 4A/	.
8F#\	.	.	.	.	4a/
8A\J	.	.	[8d\	8f# 8A/	.
*	*	*	*Xrep	*Xrep	*
=3	=3	=3	=3	=3	=3
*	*	*	*rep	*rep	*
8D\L	1r	1r	8d\]	8f# 8A/	4dd\
16d\L	.	.	4d\	4f# 4A/	.
16c#\JJ	.	.	.	.	.
8B\L	.	.	.	.	4ff#\
8A\J	.	.	4d\	4f# 4A/	.
8G\L	.	.	.	.	4aa\
8F#\	.	.	4d\	4f# 4A/	.
8E\	.	.	.	.	4ddd\
8D\J	.	.	8d\	8f# 8A/	.
*	*	*	*Xrep	*Xrep	*
=4	=4	=4	=4	=4	=4
4AA/	[1e [>1c#	[1ccc#	8c#\	8e 8A/	8ccc#\
.	.	.	4c#\	4e 4A/	4ccc# 4a\
4AA/	.	.	.	.	.
.	.	.	4c#\	4e 4A/	4ccc# 4a\
4C#/	.	.	.	.	.
.	.	.	4c#\	4e 4A/	4ccc# 4a\
4E/	.	.	.	.	.
.	.	.	8c#\	8e 8A/	8ccc# 8a\
=5	=5	=5	=5	=5	=5
*	*	*	*rep	*rep	*
8AA/L	4e] 4c#\]	4ccc#\]	8c#\	8e 8A/	4ccc# 4a\
8A/	.	.	4c#\	4e 4A/	.
8G#X/	4r	4r	.	.	4A/
8A/J	.	.	4c#\	4e 4A/	.
8E/L	2r	2r	.	.	4c#/
8A/	.	.	4c#\	4e 4A/	.
8C#/	.	.	.	.	4e/
8E/J	.	.	8c#\	8e 8A/	.
*	*	*	*Xrep	*Xrep	*
=6	=6	=6	=6	=6	=6
*	*	*	*rep	*rep	*
!LO:TX:t=P:problem=mixed beam	!	!	!	!	!
8AA/L	1r	1r	8c#\	8e 8A/	4a\
16B\L	.	.	4c#\	4e 4A/	.
16A\JJ	.	.	.	.	.
8Gn\L	.	.	.	.	4cc#\
8F#\J	.	.	4c#\	4e 4A/	.
8E\L	.	.	.	.	4ee\
8D\	.	.	4c#\	4e 4A/	.
8C#\	.	.	.	.	4aa\
8BB\J	.	.	8c#\	8e 8A/	.
*	*	*	*Xrep	*Xrep	*
=7	=7	=7	=7	=7	=7
!	!	!	!	!LO:TX:a:t=Sieque 6/8	!
1AA;	1e 1c#;	1aaa;	1c#;	1e 1A;	1aa 1a;
!!LO:PB:g=original
=8||	=8||	=8||	=8||	=8||	=8||
*M6/8	*M6/8	*M6/8	*M6/8	*M6/8	*M6/8
*	*	*	*tremolo	*tremolo	*
8D'\L	4f#\yy	4ff#\yy	16d\LL	16f#/LL	4ff#\
.	.	.	16A\	16a/	.
8F#'\	.	.	16d\	16f#/	.
.	.	.	16A\	16a/	.
8A'\J	8ryy	8ryy	16d\	16f#/	8r
.	.	.	16A\JJ	16a/JJ	.
*	*	*	*Xtremolo	*Xtremolo	*
(8D\L	(y8f#\Lyy	(y8ff#yy\L	8d\L	(8dd\L	(8ff#\L
8E\	8g\yy	8ggyy\	8e\	8cc#\	8gg\
8F#\J)	8a\J)yy	8aayy\J)	8f#\J	8ccn\J)	8aa\J)
=9	=9	=9	=9	=9	=9
4G\	(y8g\Lyy	(y8gg\Lyy	4g\	(8b\L	(8gg\L
.	8f#\yy	8ff#\yy	.	8a\	8ff#\
8G\	8e\J)yy	8ee\J)yy	8g\	8g\J)	8ee\J)
4A\	(y8d\Lyy	(y8dd\Lyy	4a\	(8f#/L	(8dd\L
.	8B\yy	8b\yy	.	8g/	8b\
8AA/	8c#\J)yy	8cc#\J)yy	8A/	8e/J)	8cc#\J)
=10!|:	=10!|:	=10!|:	=10!|:	=10!|:	=10!|:
*>B	*>B	*>B	*>B	*>B	*>B
*	*	*	*tremolo	*tremolo	*
8D\L	8d\Lyy	8ddd\L	16d\LL	16f#/LL	8dd\L
.	.	.	16A\	16a/	.
8F#\	(y16dd\Lyy	16ddd\L	16d\	16f#/	(16ddd\L
.	16a\)yy	16aa\	16A\	16a/	16aa\)
8D\J	16a'\yy	16aa\	16d\	16f#/	16aa'\
.	16a'\JJyy	16aa\JJ	16A\JJ	16a/JJ	16aa'\JJ
!	!	!LO:TX:a:t=Col V.1.	!	!	!
4A\	8a\Lyy	8aa\Lyy	16d\LL	16f#/LL	8aa\L
.	.	.	16A\	16a/	.
.	8g\yy	8gg\yy	16c#\	16e/	8gg\
.	.	.	16A\	16a/	.
8AA/	8e\Jyy	8ee\Jyy	16c#\	16g/	8ee\J
.	.	.	16A\JJ	16a/JJ	.
=11	=11	=11	=11	=11	=11
8D\L	8f#\Lyy	8ff#\Lyy	16d\LL	16f#/LL	8ff#\L
.	.	.	16A\	16a/	.
8F#\	16a\Lyy	16aa\Lyy	16d\	16f#/	16aa\L
.	16a\yy	16aa\yy	16A\	16a/	16aa\
8D\J	16a\yy	16aa\yy	16d\	16f#/	16aa\
.	16a\JJyy	16aa\JJyy	16A\JJ	16a/JJ	16aa\JJ
4A\	8a\Lyy	8aa\Lyy	16d\LL	16f#/LL	8aa\L
.	.	.	16A\	16a/	.
.	8g\yy	8gg\yy	16c#\	16e/	8gg\
.	.	.	16A\	16a/	.
8AA/	8e\Jyy	8ee\Jyy	16c#\	16g/	8ee\J
.	.	.	16A\JJ	16a/JJ	.
!	!LO:CL:ed	!	!	!	!
*	*clefF4	*	*	*	*
=12:|!	=12:|!	=12:|!	=12:|!	=12:|!	=12:|!
*>C	*>C	*>C	*>C	*>C	*>C
*tremolo	*	*	*	*	*
*2\right	*2\right	*2\right	*	*	*tremolo
8D\L	[2.F# [>2.D\	[2.ddd\	16d\LL	16f#\LL	16dd\LL
.	.	.	16f# 16A\	16f#\	16dd\
8D\	.	.	16f# 16A\	16ff#\	16ff#\
.	.	.	16f# 16A\	16ff#\	16ff#\
8D\	.	.	16f# 16A\	16dd\	16dd\
.	.	.	16f#JJ 16A\	16dd\JJ	16dd\JJ
8D\	.	.	16f#LL 16A\	16a\LL	16a/LL
.	.	.	16f# 16A\	16a\	16a/
8D\	.	.	16f# 16A\	16dd\	16dd/
.	.	.	16f# 16A\	16dd\	16dd/
8D\J	.	.	16f# 16A\	16a\	16a/
.	.	.	16f#JJ 16A\	16a\JJ	16a/JJ
*Xtremolo	*	*	*	*	*
=13	=13	=13	=13	=13	=13
*	*	*	*2\right	*	*
!	!	!	!	!LO:TX:a:t=Uniſ	!
8D\L	2.F#] 2.D\]	2.ddd\_	16f#LL 16A\	16f#/LLyy	16f#/LL
.	.	.	16f# 16A\	16f#/yy	16f#/
8d\	.	.	16f# 16A\	16dd/yy	16dd/
.	.	.	16f# 16A\	16dd/yy	16dd/
8A\J	.	.	16f# 16A\	16a/yy	16a/
.	.	.	16f# 16A\	16a/JJyy	16a/JJ
8F#\L	.	.	16f# 16A\	16f#/LLyy	16f#/LL
.	.	.	16f# 16A\	16f#/yy	16f#/
8A\	.	.	16f# 16A\	16a/yy	16a/
.	.	.	16f# 16A\	16a/yy	16a/
8F#\J	.	.	16f# 16A\	16f#/yy	16f#/
.	.	.	16f#JJ 16A\	16f#/JJyy	16f#/JJ
*	*	*	*	*	*Xtremolo
=14	=14	=14	=14	=14	=14
4D\	4F# 4D\	4ddd\]	4f# 4A\	4d/yy	4d/
8r	8r	8r	8r	8ryy	8r
4d 4D\	4d\	4ddd\	4dd 4f# 4A 4D\	4dddyy 4ff#yy 4dyy\	4ddd 4ff# 4d\
8r	8r	8r	8r	8ryy	8r
=15	=15	=15	=15	=15	=15
*	*^	*	*	*	*
4.DD/	4.D/	4.D\	4.ddd\	4dd 4f# 4A 4D\	4dddyy 4ff#yy 4dyy\	4ddd 4ff# 4d\
.	.	.	.	8r	8ryy	8r
4r	4r	4ryy	4r	4r	4ryy	4r
8r	8r	8ryy	8r	8r	8ryy	8r
*	*v	*v	*	*	*	*
==	==	==	==	==	==
*-	*-	*-	*-	*-	*-
!!!system-decoration: [s1,s2,s3,s4,s5,s6]
!!!RDF**kern: > = above
!!!ENC: Marta Lawrence
!!!END: 2021-05-28
!!!ENC: Tomasz Grochalski
!!!END: 2021-05-15
!!!YEC: Copyright 2022 Narodowy Instytut Fryderyka Chopina (https://polishscores.org)
!!!YEM: Licence CC BY 4.0 (https://creativecommons.org/licenses/by/4.0)
